X:53
T:Charles Hornpipe
M:4/4
L:1/8
Q:1/2=105
S:D.Wright, Extraordinary Collection, London 1713
Z:Pete Stewart, 2004 <www.hornpipemusic.co.uk>
K:D
fg | agfe fga2 | F4GFED | F4GFED | C2E4fg | agfe fga2 | F4F2EF | D2A4Bc | d2D4 ||
D2d4ef | g2f2g4 | c2e4de | c2A4Bc | dcBA BcBA | G2F2E4 | D2A4Bc | d4D4 |]

